X:1
T:Trio Sonata No.3 in A major from " 12 Trio Sonatas Op.4 "
T:Trio Sonata No.3 in A-Dur
T:from " 12 Trio Sonatas Op.4 " Transcribed for Recorder, Traverso and B/C in C major from IMSLP#299301 PDF File
T:Arcangelo Corelli (1653 — 1713)
T:Public Domain
T:Public Domain
T:Public Domain
T:Public Domain
T:Public Domain
C:Arcangelo Corelli (1653 — 1713)
Z:Public Domain
%%score [ 1 2 3 ] { ( 4 6 8 ) | ( 5 7 ) }
L:1/8
Q:1/4=50
M:4/4
K:C
V:1 treble nm="Alto Rec," snm="A."
V:2 treble nm="Traverso" snm="Trv."
V:3 bass nm="Viola da gamba" snm="Vla. d. g."
V:4 treble nm="Harpsichord" snm="Hch."
V:6 treble 
V:8 treble 
V:5 bass 
V:7 bass 
V:1
"^Largo""^1. Preludio"!f! cegG c2 z2 | ac'gc faBg | e!tenuto!a(ag) z !tenuto!f(fe) | %3
 z d(dc) (a/g/)(f/e/) d2 |!mf! cedG z a^fd | z"_cresc." !tenuto!e(ed) z c(cB) | %6
 z !tenuto!A(AG) (e/d/)(c/B/) (A>d) |!f! B8 ::!f! gbd'd g2 z2 | cegG c2 z2 | Acfd- dc B2 | %11
!>(! A3!>)!!p! !tenuto!c' (c'b) z !tenuto!a | (ag) z !tenuto!g (gf) z !tenuto!f | %13
 (fe)!<(! z !tenuto!g (ag) (f>e)!<)! |!f! dg c2 z a d2 | z g c'c de (d2 | c)!p!gc'c de d2 | %17
 !fermata!c6 z2 :| z/8 |[M:3/4]"^2. Corrente"[Q:1/4=120]"^Allegro"!f! g | g3 c ec | dc de fd | %22
 ec ed e^f | gd ga bg | c'b ab c'a | bd e=f gG | Ac de fA | Bg ab c'g | ac fa d'a | bg ab c'e | %30
 ad d4 |!mf! cG ce ge | dG Bd gd | ec e!<(!g c'e | ^fd fa d'a!<)! | bg bd' bd' |!f! ad' ad' ad' | %37
 gc' gc' gc' | ^fb fb fb | ea ea ea | ^fd ef g2 | e2 A3 d | B4 z ::!f! d | d3 e de | fe fg df | %46
 ec eg c'd' | ba bc' ab | ^ge ab c'b | c'd' b4 | aA ce ae |!f! ^cA ce ae | ^fd fa d'a | %53
!p! ^fd fa d'a | bG Bd gd |!f! BG Bd gd | ec eg c'g |!p! ec eg c'g | aF Ac fA |!p! BG Be de | %60
 cA cf ef | dB"_cresc." dg fg | ec ea ga | fd fb ab | ge gc' bc' | af ad' c'd' |!f! bg ab c'e | %67
 ad d4 | c4 z :| z/8 |[M:3/2]"^3.Sarabanda"[Q:1/2=50]"^Largo"!p! c4 | g6 g2 (e2 f2) | %72
 d4 G4 (d2 e2) | c6 e2 (d2 c2) | B6 d2 (g2 f2) | e6 e2 (a2 g2) | ^f6 d2 g4- | g2 a2 a6 g2 | g8 :: %79
!p! (d2 e2) | f6 f2 (g2 d2) | e6-"_cresc." e2 a4 |!mf! a2 b2 (b6 a2) |!>(! a8!>)!!p! (e2 f2) | %84
 g6 g2 (f2 e2) | d6!<(! g2 (c'2 e2)!<)! | (a2 d2)!>(!{de} (d6 c2)!>)! | c8 :| z/8 | %89
[M:2/2][Q:1/2=100]"^Allegro"!f!"^4. Tempo di Gavotta." .g2 .d2 .e2 .B2 | .c2 z2 .c'2 .g2 | %91
 .a2 .e2 .f2 .A2 | .B2 c4 .B2 | .c2 .e2 .d2 .g2 | .c2 c'4 .b2 | .e2 .a2 .d2 .g2- | %96
 g2 .^f2 .g2 .e2 | .A2 .d2 .G2 g2- | g2 f4 .e2 | .A2 .d2 .B2 c2- | c2 .B2 .c2 .g2 | %101
 .a2 .A2 .B2 c2- | c2 .B2 c4 ::!mf! .e2 .B2 .c2 .^G2 | .A2 .B2 .c2 .B2 |!f! .e2 .B2 .c2 .B2 | %106
!mf! .a2 .e2 .f2 .^c2 | .d2 .e2 .f2 .e2 |!f! .a2 .e2 .f2 .e2 | .a2 .b2 .^c2 d2- | d2 .^c2 .d2 .a2 | %111
 e4 z2!p! .a2 | e4 z2!f! .b2 | ^f4 z2!p! .b2 | ^f4 z2!f! .b2 | .c'2 (a4 g2) | ^f4 e4 | %117
!f! .g2 .d2 .e2 .B2 | .c2 z2 .f2 .e2 | .d2 .c2 .B2 .g2 | .c'2 .e2 .^f2 g2 | .g2 .^f2 g4 | %122
 .c'2 .e2 .a2 .c2 | f6 .e2 | .A2 .d2 .B2 c2- | c2 .B2 c4 |!p! .c'2 .e2 .a2 .c2 | f6 .e2 | %128
 .A2 .d2 .B2 c2- | c2 B2 c4 :| %130
V:2
 z4!f! cegG | c2 z2 afdB | c2 z !tenuto!d (dc) z !tenuto!B | (BA) z G (A/B/)c (c>B) | %4
!mf! c2 z .g ec z d' |"_cresc." bg z !tenuto!a (ag) z !tenuto!^f | (^fe) z d gG (G>^F) |!f! G8 :: %8
 z4!f! GBdD | G2 z2 cegG | c2 z f (^G A2) G |!>(! A2 z!>)!!p! !tenuto!a (ag) z !tenuto!f | %12
 (fe) z !tenuto!e (ed) z !tenuto!d | (dc)!<(! z !tenuto!e (fe) (d>c)!<)! |!f! B2 z g c2 z a | %15
 d2 z g B (c2 B) | c2 z!p! g B c2 B | !fermata!c6 z2 :| z/8 |[M:3/4]!f! e | e4 c2 | .g2 .B2 .d2 | %22
 G4 e2 | d4 g2- | g2 ^f4 | g4 .B2 | .c2 .A2 .d2 | (G4 .g2) | (c4 .a2) | (d4 .g2) | c2 c3 B | %31
 c4!mf! .e2 | .g2 .d2 .B2 | (G4!<(! .e2) | .A2 .a2 .^f2!<)! | g6 | z2!f! d2 d2 | (d2 c4) | %38
 z2 B2 B2 | (B2 A2) a2 | d4 d2 | G2 (G3 ^F) | G4 z ::!f! B | B4 (.B2 | .c2) .c2 .d2 | G4 (e2 | %47
 f4) f2 | .B2 .e2 a2- | a2 (a3 ^g) | a6 |!f! e4 e2 | A6 |!p! a4 a2 | d6 |!f! d4 d2 | G6 | %57
!p! g4 g2 | (c4 .a2) |!p! .d2 .g2 .b2 | .e2 .a2 .c'2 | z2"_cresc." .b2 .d'2 | .g2 .c2 .e2 | %63
 .A2 .d2 .f2 | z2 .e2 .g2 | .c2 .f2 .a2 |!f! (d4 g2) | .c2 (c3 B) | c4 z :| z/8 |[M:3/2]!p! e4 | %71
 d6 e2 (c2 d2) | B8 g4 | e4 (^f2 g2) a4 | (a4 g4) d4- | d4 G4 c4 | c6 A2 B4 | g4 (g4 ^f4) | g8 :: %79
!p! B4 | c8 d4 | G6-"_cresc." G2 c4 |!mf! a4 (a4 ^g4) |!>(! a8!>)!!p! (g2 c2) | d6 e2 (d2 c2) | %85
 B6!<(! d2 e4!<)! | c4!>(! (c4 B4)!>)! | c8 :| z/8 |[M:2/2] z4!f! .g2 .d2 | .e2 .B2 .c2 z2 | %91
 .c'2 .g2 .a2 .f2- | .f2 .e2 d4 | .c2 .g2 .f2 .d2 | .e2 .^f2 g4 | z2 .e2 .^f2 .d.e | (Td2 c2) B4 | %97
 z4 z2 .e2 | .A2 .d2 .G2 g2- | g2 f4 .e2 | d4 c4 | z2 f4 .e2 | d4 c4 :: z4!mf! e4 | z4 e4 | %105
 z4!f! e4 | z4!mf! a4 | z4 a4 | z4!f! .a2 .^c2 | .d2 g4 .f2 | e4 d4 | z2 .a2 f4 | z2!p! .a2 f4 | %113
 z2 .b2 g4 | z2!p! .b2 g4 | z2!f! .c'2 .^d2 e2- | e2 ^d2 e4 | z4!f! .g2 .d2 | .e2 .B2 .c2 z2 | %119
 .f2 .e2 .d2 (.e2 | .c2) c'4 .b2 | a4 g4 | z8 | .B2 .d2 .G2 g2- | g2 f4 .e2 | d4 c4 | z8 | %127
!p! .B2 .d2 .G2 g2- | g2 f4 .e2 | d4 c4 :| %130
V:3
!f! C2 B,2 A,2 G,2 | F,2 E,2 D,2 G,2 | C,2 B,2 A,2 G,2 | F,2 E,2 F,2 G,2 |!mf! C,2 B,,2 C,2 D,2 | %5
 G,2"_cresc." ^F,2 E,2 D,2 | C,2 B,,2 C,2 D,2 |!f! G,,8 ::!f! G,2 ^F,2 E,2 D,2 | %9
 C,2 B,,2 A,,2 G,,2 | F,2 D,2 E,A,EE, |!>(! A,B,C!>)!!p!A, E,2 F,2 | C,D,E,C, D,E,F,G, | %13
 A,B,!<(!CC, F,2 z F,!<)! |!f! G,2 E,2 F,2 ^F,2 | G,2 E,2 F,C,G,G,, | C,2!p! E,2 F,C,G,G,, | %17
 !fermata!C,6 z2 :| z/8 |[M:3/4]!f! z | C,4 .C2 | .B,2 .G,2 .B,2 | .C2 .C,2 .C2 | B,4 .B,2 | %24
 .A,2 D2 .D,2 | .G,2 !>!G4- | G2 (!>!F4- | F2 E2) .E,2 | .F,2 .A,2 .F,2 | (G,2 F,2) .E,2 | %30
 .F,2 G,2 G,,2 | C,4!p! .C2 | .B,2 .G,2 .B,2 | .C2 .C,2!<(! (.C2 | .D2) .D,2 .D2!<)! | G,4 .G,2 | %36
!f! .^F,2 .F,2 .B,2 | E,4 .A,2 | .D,2 .D,2 .G,2 | C,4 C,2 | C,4 .B,,2 | (.C,2 D,4) | G,4 z :: z | %44
!f! G,4 .G,,2 | .A,,2 .A,2 .B,2 | .C2 (.C,2 .C2) | .D2 .D,2 .D2 | E2 .C2 .A,2 | .D,2 .E,2 E,,2 | %50
 A,,4 z2 |!f! .A,2 .A,,2 .^C,2 | D,4 z2 |!p! .D2 .D,2 .^F,2 | G,4 z2 |!f! .G2 .G,2 .B,2 | C4 .C2 | %57
!p! .C2 .C,2 .E,2 | F,4 z2 |!p! .G,2 .G,,2 z2 | .A,2 .A,,2 z2 | .B,2"_cresc." .B,,2 z2 | %62
 .C2 .C,2 z2 | .D2 .D,2 z2 | .E2 .E,2 z2 | .F2 F,4- |!f! F,4 .E,2 | .F,2 .G,2 .G,,2 | C,4 z :| %69
 z/8 |[M:3/2]!p! C4 | B,2 A,2 B,2 G,2 C2 C,2 | G,2 F,2 G,2 A,2 B,2 G,2 | A,2 B,2 A,2 G,2 F,2 D,2 | %74
 G,2 ^F,2 G,2 A,2 B,2 G,2 | C,2 B,,2 C,2 D,2 E,2 C,2 | D,2 E,2 D,2 C,2 B,,2 G,2 | C2 A,2 D4 D,4 | %78
 G,8 ::!p! G,4 | A,2 G,2 A,2 C2 B,2 D2 | C2 B,2 C2"_cresc." E,2 F,2 C,2 | %82
!mf! D,2 B,,2 E,2 D,2 E,2 E,,2 |!>(! A,,2 ^G,,2 A,,2 B,,2!>)!!p! C,2 A,,2 | %84
 B,,2 A,,2 B,,2 G,,2 C,2 C,,2 | G,2 A,2 G,2!<(! F,2 E,2 C,2!<)! | F,2 D,2 G,4 G,,4 | C,8 :| z/8 | %89
[M:2/2] z8 |!f! .C2 .G,2 .A,2 .E,2 | .F,2 z2 .F2 .F,2 | .G,2 .C,2 .G,2 .G,,2 | .C,2 C4 .B,2- | %94
 .B,2 .A,2 G,4 | C,2 C4 .B,.C | .D2 .D,2 .G,2 !>!G2- | G2 =F4 .E2 | .F2 .D2 .B,2 .C2 | %99
 F,4 .G,2 .C,2 | .G,2 .G,,2 .C,2 .E,2 | F,4 .G,2 .C,2 | G,4 C,4 :: z4!mf! .A,2 .E,2 | %104
 z4 .A,2 .E,2 | z4!f! .A,2 .E,2 | z4!mf! .D2 .A,2 | z4 .D2 .A,2 | z4!f! .D2 .A,2 | %109
 .F,2 .G,2 .A,2 .D,2 | A,4 D,4 | ^C,4 D,4 |!p! ^C,4 D,4 | ^D,4 E,4 |!p!!p! .^D,2 (!>!^D2 E2) E,2 | %115
 A,4 .B,2 .E,2 | .B,2 .B,,2 E,4 | z8 |!f! .C2 .G,2 .A,2 .E,2 | .F,2 .C,2 .G,2 .E,2 | %120
 .A,2 .A,,2 .D,2 .G,2 | .D2 .D,2 .G,2 .F,2 | .E,2 .C,2 .F,2 .E,2 | .D,2 .B,,2 .C,2 .C2 | %124
 .F2 .F,2 .G,2 .C,2 | .G,2 .G,,2 .C,2 .D,2 |!p! .E,2 .C,2 .F,2 .E,2 | .D,2 .B,,2 .C,2 .C2 | %128
 .F2 .F,2 .G,2 .C,2 | G,4 C,4 :| %130
V:4
 [EGc]2 [DGd]2 [EAc]2 [EBe]2 | [Acf]2 [Gcg]2 f3 g | eeag f3 e | d3 c c2- c>B | %4
 [EGc]2 [Gdg]2 [Gce]2 [^FAd]2 | B e2 d c3 B | A3 G GA/B/ [DA]2 | G8 :: %8
 [DGB]2 [DAd]2 [GBe]2 [^FB^f]2 | [Gce]2 [Gdg]2 [EAc]2 [EBe]2 | [Ac]2 ([Fd-]2 [^Gd][Ac] [EB]2) | %11
 A3 c ([Ac][GB]A)c | A G2 A GFAG | F E2 G A4 | .[B,DG][DGB] [CGc]2 .[CFA].[FAc] [DAd]2 | %15
 .[DGB].[GBd] [Gcg]2 [Bd]e d2 | [EGc]2 [CGc]2 (G3 B) | c8 :| z/8 |[M:3/4] z | [EGc]4 [EG]2 | %21
 .[DGd]2 .B2 .[DG]2 | [EG]4 .[Ge]2 | .[Gd]2 .D2 .G2- | c4 .[Ac]2 | .[GB]2 z2 .B2 | (c2 d2) f2 | %27
 (B2 c2) [cg]2 | .[Ac]2 .[Fcf]2 .[Ad]2 | d4 .c2 | c2 (c3 B) | [EGc]4 .[Gce]2 | .[Gd]2 .B2 .[Gdg]2 | %33
 .[Gce]2 z2!<(! .[ceg]2 | .[Ad^f]2 z2!<)! dc | [Bdg]4 [db]2 | a6 | g6 | ^f6 | (e2 a2) e2 | %40
 ^f2 ed [dg]2 | [GAe]2 [Ad]4 | [DGB]4 z :: z | [GBd]4 .[GB]2 | c4 d2 | [Ge]2 z2 .[ce]2 | f4 B2 | %48
 [^GBe]2 .A2 [Ec-]2 | c2 [EB]4 | [CEA]4 z2 | .[^CEA]2 .[EA^c]2 .[GAe]2 | .[^FAd]2 .A2 D2 | %53
 .[^FAd-]2 .[Ad^f]2 .[cda]2 | (.[Bdg]2 .d2) .G2 | .B2 .[Bd]2 .[Gdg]2 | .[Gce]2 .G2 z2 | %57
 .[Gce]2 .[ceg]2 .[cgc']2 | .[cfa]2 .F2 z2 | D2 E2 G2- | G2 F2 A2 | A2 G2 B2 | B2 A2 c2- | %63
 c2 B2 d2- | d2 c2 e2- | e2 d2 f2 | d2 z2 [Gc]2 | c2 c3 B | [EGc]4 z :| z/8 |[M:3/2] [EG]4 | %71
 (G6- G4 F2) | (D4 B4) G2 B2 | (G4 ^F2 G2 A2 F2) | (B6 c2 d4) | [Ge]8 (c2 e2) | (d8- d2 B2) | %77
 (e2 c2) (g4 ^f4) | [Bdg]8 :: [GB]4 | (c8 d2 B2) | (e6 c2 A4) | A2 d2 B8 | %83
!>(! (c2 B2 c2 d2!>)! e2 c2) | d2 z2 z4 G4 | (G6 [Gc]4) E2 | [Ac]4 (c4 B4) | c8 :| z/8 | %89
[M:2/2] z8 |[K:bass] .C2 .G,2 .A,2 E,2 | F,2 z2[K:treble] .[FA]2 .[Dd]2 | B2 c4 B2 | %93
 [EGc]2 z2 (A2 G2) | c6 .B2 | .[Gc]2 .[Ge]2 .[^FAd]2 g2 | g2 ^f2 g2 z2 | (c2 d2 B2) c2 | %98
 (c2 =f4) e2 | c2 f4 [ce]2 | [Fd]4 c2 (g2- | g2 f4) [ce]2 | c2 B2 [EGc]4 :: z4 ([Ac]2 [^GB]2) | %104
 [^FA]2 .[E^GB]2 .[EAc]2 .[EGB]2 | z2 .[E^GB]2 .[EAc]2 .[EGB]2 | z4 (.[Adf]2 .[A^ce]2) | %107
 .[ABd]2 .[A^ce]2 .[Adf]2 .[Ace]2 | z2 .[A^ce]2 .[Adf]2 .[Ace]2 | d4 ^c2 ((d2 | d2) ^c2) .d2 .A2 | %111
 !>![EA]4 !>![FA]4 | .[EA]2 (e2 f2) .[FA]2 | !>![^FB]4 !>![GB]4 | .[^FB]2 (^f2 g2) .[GB]2 | %115
 .[Ec]2 (([Gce]2 [FBd]2)) (e2- | e2 ^d2) e4 | z4 .c2 .G2 | [EG]2 .[FB]2 .[Fc]2 .[Gce]2 | %119
 .[Ad]2 .[Gce]2 .[GBd]2 .[Gc]2 | c4 A2 [GB]2 | (A4 B2) .[GBd]2 | c2 .[Gce]2 .[FAc]2 .[Gcg]2 | %123
 f6 [ce]2 | (c2 d4) G2 | c2 B2 c4 | c2 [Gce]2 [FAc]2 [Gcg]2 | f6 ([c-e]2 | c2 d2) B2 (c2- | %129
 c2 B2) c4 :| %130
V:5
 [C,C]2 [B,,B,]2 [A,,A,]2 [G,,G,]2 | [F,,F,]2 [E,,E,]2 [D,,D,]2 [G,,G,]2 | %2
 [C,C]2 [B,,B,]2 [A,,A,]2 [G,,G,]2 | [F,,F,]2 [E,,E,]2 [F,,F,]2 [G,,G,]2 | C,2 B,,2 C,2 D,2 | %5
 G,2 ^F,2 E,2 D,2 | C,2 B,,2 C,2 D,2 | G,8 :: G,2 ^F,2 E,2 D,2 | C,2 B,,2 A,,2 [G,,G,]2 | %10
 [=F,,=F,]2 [D,,D,]2 [E,,E,]A,,E,E,, | (A,,B,,C,)A,, [E,,E,]2 [F,,F,]2 | C,D,E,C, D,E,B,G, | %13
 A,B,CC, F,3- [F,,F,] | [G,,G,]2 [E,,E,]2 [F,,F,]2 .[^F,,^F,]2 | %15
 [G,,G,]2 [E,,E,]2 [F,,F,][C,,C,][G,,G,][G,,,G,,] | [C,,C,]2 E,2 F,C,G,G,, | G,8 :| z/8 | %19
[M:3/4] z | [C,,C,]4 .C2 | .B,2 .G,2 .B,2 | .C2 .C,2 .C2 | B,4 .B,2 | .A,2 D2 .D,2 | .G,2 !>!G4- | %26
 G2 (!>!F4- | F2 E2) .E,2 | .F,2 .A,2 .F,2 | (G,2 F,2) .E,2 | .F,2 G,2 G,,2 | C,4 .C2 | %32
 .B,2 .G,2 .B,2 | .C2 .C,2 (.C2 | .D2) .D,2 .D2 | G,4 .G,2 | .^F,2 .F,2 .B,2 | E,4 .A,2 | %38
 .D,2 .D,2 .G,2 | C,4 C,2 | C,4 .B,,2 | (.C,2 D,4) | G,4 z :: z | G,4 .G,,2 | .A,,2 .A,2 .B,2 | %46
 .C2 (.C,2 .C2) | .D2 .D,2 .D2 | E2 .C2 .A,2 | .D,2 .E,2 E,,2 | A,,4 z2 | .A,2 .A,,2 .^C,2 | %52
 D,4 z2 | .D2 .D,2 .^F,2 | G,4 z2 | .G2 .G,2 .B,2 | C4 .C2 | .C2 .C,2 .E,2 | F,4 z2 | %59
 .G,2 .G,,2 z2 | .A,2 .A,,2 z2 | .B,2 .B,,2 z2 | .C2 .C,2 z2 | .D2 .D,2 z2 | .E2 .E,2 z2 | %65
 .F2 F,4- | F,4 .E,2 | .F,2 .G,2 .G,,2 | C,4 z :| z/8 |[M:3/2] C,4 | B,,2 A,,2 B,,2 G,,2 C,4 | %72
 [G,,G,]2 [^F,,^F,]2 [G,,G,]2 [A,,A,]2 [B,,B,]2 [G,,G,]2 | %73
 ([A,,A,]2 [B,,B,]2) [A,,A,]2 [G,,G,]2 [^F,,^F,]2 [D,,D,]2 | %74
 [G,,-G,]2 [^F,,^F,]2 [G,,G,]2 [A,,A,]2 [B,,B,]2 [G,,G,]2 | C,2 B,,2 C,2 D,2 E,2 C,2 | %76
 D,2 E,2 D,2 C,2 B,,2 G,,2 | (C,2 A,,2) D,8 | G,8 :: [G,,G,]4 | %80
 ([A,,A,]2 [G,,G,]2 [A,,A,]2 [C,C]2) [B,,B,]2 [D,D]2 | [C,C]2 [B,,B,]2 [C,C]2 E,2 F,2 C,2 | %82
 D,2 B,,2 E,2 D,2 E,4 | A,,2 ^G,,2 A,,2 B,,2 C,2 A,,2 | B,,2 A,,2 B,,2 G,,2 C,2 C,,2 | %85
 [G,,G,]2 [A,,A,]2 [G,,G,]2 [F,,F,]2 [E,,E,]2 [C,,C,]2 | [F,,F,]2 [D,,D,]2 [G,,G,]4 [G,,,G,,]4 | %87
 C,8 :| z/8 |[M:2/2] z8 | .C,2 G,,2 .A,,2 E,,2 | F,,2 z2 F,2 .F,,2 | G,,2 .C,2 .G,2 .G,,2 | %93
 .C,2 !>!C4 B,2- | B,2 .A,2 G,4 | C,2 !>!C4 .B,.C | .D2 .D,2 .G,2 !>!G2- | G2 =F4 .E2 | %98
 .F2 .D2 .B,2 .C2 | (=F,4 G,2) .C,2 | G,2 .G,,2 .C,2 .E,2 | (F,4 G,2) C,2 | G,4 C,4 :: %103
 z4 .A,2 E,2 | z4 .A,2 .E,2 | z2 .E,2 .[A,,A,]2 [E,,E,]2 | z4 .D2 .A,2 | z4 .D2 .A,2 | %108
 z2 .A,2 .[D,D]2 (.[A,,A,]2 | F,2) G,2 A,2 D,2 | A,4 D,4 | !>!^C,4 !>!D,4 | .^C,2 (^C2 D2) .D,2 | %113
 ^D,4 E,4 |!p! .^D,2 (!>!^D2 E2) E,2 | A,4 .B,2 E,2 | .B,2 .B,,2 [E,,E,]4 | z8 | %118
 .C2 .G,2 .A,2 E,2 | .F,2 .C,2 .G,2 .E,2 | A,2 .A,,2 .D,2 .G,2 | %121
 (D,2- [D,,D,]2 [G,,G,]2) [=F,,=F,]2 | .[E,,E,]2 [C,,C,]2 [F,,F,]2 [E,,E,]2 | %123
 [D,,D,]2 [B,,,B,,]2 [C,,C,]2 .C,2 | F,2 .F,,2 G,,2 .C,2 | .G,2 G,,2 (.C,2 .D,2) | %126
 .E,2 .C,2 .F,2 E,2 | .D,2 .B,,2 .C,2 .C2 | F2 .F,2 .G,2 .C,2 | [G,,G,]4 [C,,C,]4 :| %130
V:6
 x8 | x4 [Ac]2 [GB]2 | [Gc]c d2- dc B2- | BA G2 AD- [DG]2 | x8 | G z A2- AG ^F2- | FE D2 E2 G>^F | %7
 [B,D]8 :: x8 | x8 | x2 AB E2 A^G | (CDE)A x2 [FA]2 | FECE EDB, x | x3 E C2 D2 | x8 | z4 G4 | %16
 z4 [CE][CE] [DF]2 | [CE]8 :| x/4 |[M:3/4] x | x6 | x6 | x6 | x6 | G2 .^F2 x2 | x6 | c2 x4 | %27
 G4 G2 | x6 | (B2 A2) G2 | A2 [DG]4 | x6 | x6 | x6 | x4 ^f2 | x6 | (a2 d2) ^f2 | (g2 c2) e2 | %38
 (^f2 B2) d2 | e4 A2 | [Ad]2 x2 G2 | x2 (G3 ^F) | x5 :: x | x6 | G4 G2 | x6 | B4 x2 | x6 | %49
 A2 (A3 ^G) | x6 | x6 | x6 | x6 | x6 | x6 | x6 | x6 | x6 | B,6 | C6 | D6 | E6 | F6 | G6 | %65
 A4 [Ac]2 | [GB]2 x2 g2 | A2 [DG]4 | x5 :| x/4 |[M:3/2] x4 | D2- C2 D2 B,2 E2 [DF]2 | B,6 C2 D4 | %73
 C8- C2 D2 | (D8 C2) B2 | d4 c4 G4 | ^F2 c2 B2 A2 G4 | G4 (A2 B2 c4) | x8 :: x4 | =F6 A2 G4 | %81
 (G8 (F2) E2) | F4 A4 ^G4 | E8- E2 A2 | (G6 E2 [DF]2 [CE]2) | [B,D]2 x2 B2 x6 | %86
 (D2 F2) (D2 E2 F4) | [EG]8 :| x/4 |[M:2/2] x8 |[K:bass] x8 | x4[K:treble] x4 | F2 E2 F4 | x4 F4 | %94
 (E2 ^F2 G4) | x6 .d.e | A2 c2 B2 x2 | (A4 G2) G2 | (A2 B2 G4) | A4 [GB]2 G2 | c2 B2 [Ec]2 z2 | %101
 (A4 B2) G2 | [Gd]4 x4 :: z4 E2 E2 | E2 x6 | x8 | x8 | x8 | x8 | (A2 G2) [EG]2 [FA]2 | G4 F4 | x8 | %112
 x2 !>!A4 x2 | x8 | x2 B4 x2 | x6 ([GB]2 | A4) [GB]4 | x8 | x8 | x8 | (.E2 G2) ^F2 D2 | %121
 G2- ^F2 G2 x2 | G2 x6 | (B2 d2 G2) G2 | A4 B2 e2 | [Gd]4 E2 F2 | G2 x6 | (B2 d2 G2) G2 | %128
 .c2 x2 G4- | [DG]4 [EG]4 :| %130
V:7
 x8 | x8 | x8 | x8 | x8 | x8 | x8 | G,,8 :: x8 | x8 | x8 | x8 | x8 | x8 | x8 | x8 | x8 | C,8 :| %18
 x/4 |[M:3/4] x | x6 | x6 | x6 | x6 | x6 | x6 | x6 | x6 | x6 | x6 | x6 | x6 | x6 | x6 | x6 | x6 | %36
 x6 | x6 | x6 | x6 | x6 | x6 | x5 :: x | x6 | x6 | x6 | x6 | x6 | x6 | x6 | x6 | x6 | x6 | x6 | %55
 x6 | x6 | x6 | x6 | x6 | x6 | x6 | x6 | x6 | x6 | x6 | x6 | x6 | x5 :| x/4 |[M:3/2] x4 | %71
 x8 C,2 C,,2 | x12 | x12 | x12 | x12 | x12 | x4 (D,4 D,,4) | G,,8 :: x4 | x12 | x12 | x8 E,2 E,,2 | %83
 x12 | x8 C,4 | x12 | x12 | C,,8 :| x/4 |[M:2/2] x8 | x8 | x8 | x8 | x8 | x8 | x8 | x8 | x8 | x8 | %99
 x8 | x8 | x8 | x8 :: x8 | x8 | x8 | x8 | x8 | x8 | x8 | x8 | x8 | x8 | x8 | x8 | x8 | x8 | x8 | %118
 x8 | x8 | x8 | x8 | x8 | x8 | x8 | x8 | x8 | x8 | x8 | x8 :| %130
V:8
 x8 | x8 | x8 | x8 | x8 | x8 | x8 | x8 :: x8 | x8 | x8 | x8 | x8 | x8 | x8 | x5 (c2 B) | x8 | x8 :| %18
 x/4 |[M:3/4] x | x6 | x6 | x6 | x6 | x6 | x6 | x6 | x6 | x6 | x6 | x6 | x6 | x6 | x6 | x6 | x6 | %36
 x6 | x6 | x6 | x6 | x6 | x6 | x5 :: x | x6 | x6 | x6 | x6 | x6 | x6 | x6 | x6 | x6 | x6 | x6 | %55
 x6 | x6 | x6 | x6 | x6 | x6 | x6 | x6 | x6 | x6 | x6 | x6 | x6 | x5 :| x/4 |[M:3/2] x4 | x12 | %72
 x12 | x12 | x12 | x12 | x12 | x4 d8 | x8 :: x4 | x12 | x12 | x12 | x12 | G8 x4 | %85
 x2 F2 E2 D2 C2 x2 | x4 G8 | x8 :| x/4 |[M:2/2] x8 |[K:bass] x8 | x4[K:treble] x4 | x8 | x8 | x8 | %95
 x8 | x8 | x8 | x8 | x8 | x8 | x8 | x8 :: x8 | x8 | x8 | x8 | x8 | x8 | x8 | x8 | x8 | x8 | x8 | %114
 x8 | x8 | x8 | x8 | x8 | x8 | x8 | D4 x4 | x8 | x8 | x8 | x8 | x8 | x8 | x4 G2 E2 | x8 :| %130

